X:9
T:Learned Men. WHG.009
R:country dance
S:W.H.Giles MS,Bampton,Oxfordshire,1839p9
O:England
H:donated by Mrs W.R.Kettlewell to VWML,Apr 1927.
A:Bampton, Oxfordshire
N:Repeat mark at end of tune in MS.
Z:PJHeadford – VMP 2009
M:2/4
L:1/8
Q:1/4=140 Allegro
K:G
|:Bd g2|Bd g2|fgaf|bg gd|\
” For”Bd g2|Bd g2|fgaf|g4:|
.a.a(gf)|.a.a(gf)|ggfe|defg|\
.a.a(gf)|.a.a(gf)|(ef).g.e|d(a/g/ f/e/d/c/)|
” P”Bd g2|Bd g2|fgaf|bg gd|\
Bd g2|Bd g2|fgaf|g4|]

